icons/signature-17.svg

<svg width="16" height="17" viewBox="0 0 16 17" fill="none" xmlns="http://www.w3.org/2000/svg">
<path fill-rule="evenodd" clip-rule="evenodd" d="M7.84826 6.37174C7.75469 6.49596 7.68089 6.60671 7.63935 6.682C7.35621 7.19526 7.11482 7.60732 6.89098 7.98943C6.47913 8.69248 6.12669 9.29412 5.68284 10.2381C5.46569 10.6999 5.17872 11.5635 5.04944 12.2046C5.04897 12.207 5.04842 12.2098 5.04779 12.2129C5.04231 12.2405 5.03098 12.2975 5.01829 12.3391C5.0182 12.3394 5.01809 12.3398 5.01796 12.3402C5.01486 12.3505 4.99879 12.404 4.96498 12.4624L4.96432 12.4636C4.95159 12.4856 4.89311 12.5868 4.77004 12.6611C4.6955 12.706 4.58307 12.7492 4.44478 12.7397C4.30577 12.7302 4.1989 12.6715 4.12936 12.6143C4.01532 12.5204 3.9724 12.408 3.96319 12.3839L3.96269 12.3826C3.94738 12.3426 3.93993 12.3093 3.9367 12.2938C3.92989 12.2609 3.92717 12.2333 3.92613 12.2223C3.92272 12.186 3.92055 12.1113 3.91803 12.0245C3.91665 11.9772 3.91517 11.9262 3.91333 11.8759C3.87586 10.8532 3.88004 9.84037 3.88419 8.83655C3.88465 8.72325 3.88512 8.61007 3.88553 8.49701C3.88641 8.25243 3.87191 7.41057 3.75151 6.67561C3.69022 6.30154 3.60985 6.01107 3.52152 5.842C3.4427 5.88911 3.35693 5.9639 3.25929 6.07714C3.14381 6.21107 3.04465 6.35704 2.92893 6.52739C2.88962 6.58526 2.8484 6.64594 2.80398 6.70992C2.40352 7.28671 2.10345 7.91955 1.80138 8.63588C1.6822 8.9185 1.35647 9.051 1.07385 8.93182C0.791229 8.81264 0.658733 8.48691 0.777914 8.20429C1.08855 7.46765 1.4242 6.74964 1.89159 6.07645C1.92056 6.03473 1.95175 5.98872 1.98487 5.93985C2.1074 5.75912 2.25649 5.5392 2.41808 5.3518C2.6309 5.10498 2.92018 4.84493 3.31921 4.72589C3.58927 4.64532 3.85751 4.68773 4.08136 4.83281C4.28138 4.96244 4.41308 5.15184 4.50156 5.3192C4.67816 5.65326 4.78156 6.09267 4.84764 6.49604C4.98286 7.32142 4.99722 8.23506 4.99626 8.50101C4.99586 8.6142 4.99539 8.72715 4.99493 8.83988C4.99455 8.9328 4.99417 9.02557 4.99382 9.11821C5.32728 8.46153 5.63362 7.93788 5.96155 7.3773C6.18195 7.00056 6.4121 6.60715 6.66679 6.14547L7.12234 6.39679L6.66679 6.14547C6.78572 5.92988 6.99489 5.64427 7.21148 5.39273C7.41789 5.15304 7.69334 4.87046 7.95622 4.72211C8.03974 4.67498 8.1582 4.63417 8.29964 4.64554C8.4423 4.65701 8.55455 4.71725 8.63149 4.78081C8.76318 4.88959 8.81681 5.02746 8.83558 5.0786C8.88167 5.20419 8.90036 5.34687 8.91013 5.44026C8.92129 5.5468 8.92669 5.65447 8.92975 5.73529C8.93117 5.77304 8.93216 5.80682 8.9329 5.83232L8.93308 5.83864C8.93381 5.86358 8.93415 5.87168 8.93408 5.87168C8.93406 5.87168 8.93397 5.87045 8.93383 5.86852C8.96119 6.22837 8.96999 6.71589 8.97898 7.21376C8.98186 7.37381 8.98477 7.53492 8.98832 7.69321C9.00033 8.2285 9.0196 8.7325 9.06301 9.12181C9.08489 9.09633 9.10743 9.06931 9.13063 9.04073C9.35825 8.76026 9.60227 8.38819 9.86061 7.98114C9.90582 7.9099 9.95155 7.83746 9.9976 7.76451C10.2068 7.43315 10.4227 7.09113 10.6283 6.80146C10.7548 6.62317 10.886 6.45228 11.0189 6.30699C11.147 6.16699 11.3024 6.02189 11.4818 5.92503C11.6838 5.81596 11.9395 5.75893 12.2035 5.85641C12.4437 5.9451 12.59 6.12637 12.6749 6.262C12.8266 6.50451 12.9233 6.84116 12.9931 7.08432C12.9974 7.09903 13.0015 7.1134 13.0055 7.12739C13.0738 7.36406 13.1266 7.5363 13.1794 7.65382C13.527 7.47539 13.8448 7.11797 14.1331 6.37926C14.2446 6.09353 14.5667 5.95231 14.8524 6.06384C15.1381 6.17536 15.2794 6.4974 15.1678 6.78313C14.7768 7.78492 14.2369 8.4508 13.4315 8.75508C13.2019 8.84185 12.9487 8.8486 12.7117 8.73398C12.4972 8.63021 12.3608 8.45761 12.2751 8.31722C12.1183 8.06054 12.0193 7.7166 11.9476 7.4674C11.9444 7.45653 11.9414 7.44584 11.9383 7.43535C11.8949 7.28495 11.859 7.16448 11.8268 7.06962C11.7401 7.16594 11.6425 7.29151 11.534 7.44437C11.3476 7.70702 11.1521 8.01664 10.9436 8.34682C10.8959 8.42235 10.8475 8.49896 10.7984 8.57633C10.5424 8.97971 10.2668 9.40345 9.99309 9.74067C9.85576 9.90987 9.70746 10.0718 9.55044 10.2031C9.39828 10.3302 9.20259 10.4587 8.96982 10.5104C8.79153 10.5501 8.58484 10.5334 8.40092 10.4097C8.2372 10.2997 8.15684 10.1475 8.11693 10.0509C8.05709 9.90602 8.02738 9.71506 8.01441 9.63171C8.0123 9.61815 8.01064 9.60744 8.00935 9.60024C7.91927 9.09377 7.89271 8.38051 7.87786 7.71811C7.87392 7.54241 7.87079 7.36986 7.86776 7.20306C7.86231 6.90222 7.85719 6.62006 7.84826 6.37174ZM11.7233 6.83696C11.7233 6.83688 11.7242 6.83788 11.7259 6.84022C11.7242 6.83821 11.7233 6.83704 11.7233 6.83696Z" fill="#272431"/>
</svg>

<svg xmlns="http://www.w3.org/2000/svg" width="16" height="17" viewBox="0 0 16 17"><path fill-rule="evenodd" d="M7.848 6.372a2.892 2.892 0 00-.209.31c-.283.513-.524.925-.748 1.307-.412.703-.764 1.305-1.208 2.25-.217.46-.504 1.324-.634 1.966l-.001.008a1.45 1.45 0 01-.03.126v.001a.635.635 0 01-.053.122v.002c-.013.022-.072.123-.195.197a.556.556 0 01-.64-.047.554.554 0 01-.167-.23v-.001a.578.578 0 01-.037-.16 4.26 4.26 0 01-.008-.199l-.005-.148a74.324 74.324 0 01-.029-3.04l.002-.339c0-.245-.014-1.086-.134-1.821-.062-.374-.142-.665-.23-.834a1.117 1.117 0 00-.263.235c-.115.134-.214.28-.33.45-.04.058-.08.119-.125.183-.4.577-.7 1.21-1.003 1.926a.555.555 0 01-1.023-.432c.31-.736.646-1.454 1.114-2.128l.093-.136c.122-.18.271-.4.433-.588.213-.247.502-.507.901-.626a.902.902 0 01.762.107c.2.13.332.319.42.486.177.334.28.774.347 1.177.135.825.15 1.74.148 2.005l-.001.339-.001.278c.333-.656.64-1.18.968-1.74.22-.377.45-.77.705-1.233l.455.252-.455-.252c.119-.215.328-.5.544-.752.207-.24.482-.523.745-.67a.6.6 0 01.675.058.692.692 0 01.205.298c.046.125.064.268.074.361a4.552 4.552 0 01.023.392v.007l.001.033v-.003c.027.36.036.847.045 1.345l.01.48c.011.535.03 1.038.074 1.428l.068-.081c.227-.28.471-.653.73-1.06.045-.071.09-.144.137-.216.209-.332.425-.674.63-.964.127-.178.258-.349.39-.494.129-.14.284-.285.464-.382a.867.867 0 01.722-.069c.24.09.386.27.47.406.153.243.25.58.32.822l.011.043c.069.237.122.41.174.527.348-.179.666-.536.954-1.275a.555.555 0 011.035.404c-.391 1.002-.931 1.668-1.736 1.972a.897.897 0 01-.72-.021 1.067 1.067 0 01-.437-.417c-.157-.256-.256-.6-.327-.85l-.01-.032a8.78 8.78 0 00-.111-.365 4.243 4.243 0 00-.293.374 21.23 21.23 0 00-.59.903l-.146.23c-.256.403-.531.826-.805 1.164-.137.169-.286.33-.443.462a1.396 1.396 0 01-.58.307.724.724 0 01-.853-.46 1.966 1.966 0 01-.103-.418L8.01 9.6c-.09-.506-.116-1.22-.131-1.882l-.01-.515c-.006-.3-.01-.583-.02-.831zm3.875.465l.003.003a.036.036 0 01-.003-.003z"/></svg>
